X:1
T:How Can I but Love Him?
T:How Can I but Love Him?
T:Edmund Simon Lorenz
T:Jeremiah Eames Rankin, 1878
T:Public Domain Courtesy of the Cyber Hymnal™
C:Edmund Simon Lorenz
Z:Public Domain
Z:Courtesy of the Cyber Hymnal™
%%score ( 1 2 ) ( 3 4 )
L:1/8
Q:1/4=103
M:3/4
K:Bb
V:1 treble 
V:2 treble 
V:3 bass 
V:4 bass 
V:1
 [DF]2 | ([Fd]3 [Ec]) [Ge][Fd] | [Gc]2 [GB]2 [EG]2 | (F3 G) [B,D]>[CE] | [DF]4 [DB]2 | %5
w: 1.~So|ten- * der, so|pre- cious, My|Sav- * ior to|me; So|
w: 2.~So|pa- * tient, so|kind- ly Tow’rd|all * of my|ways; I|
w: 3.~Of|all * friends the|fair- est And|tru- * est is|He; His|
w: 4.~His|beau- * ty, tho’|bleed- ing And|cir- * cled with|thorns, Is|
 (B3 c) [CA][DB] | [Ec]2 [EF]2 [Ec]2 | [Ge]2 [Fd]2 [Ec]2 | [DB]4 ||"^Refrain" [DB]2 | %10
w: true * and so|gra- cious, I’ve|found Him to|be;||
w: blun- * der so|blind- ly, He|love still re-|pays;||
w: love * is the|rar- est, That|ev- er can|be.||
w: then * most ex-|ceed- ing, For|grief Him a-|dorns.||
 [GB]4 [FA][EG] | [DF]2 [B,D]2 z [DF] | [EF]2 [Ec]2 z [EF] | [DF]2 !fermata![Fd]2 [DB]2 | %14
w: ||||
w: ||||
w: ||||
w: ||||
 [GB]4 [FA][EG] | [DF]2 [B,D]2 [DF]2 | [EF]2 [Ec]2 [EA]2 | [DB]4 |] %18
w: ||||
w: ||||
w: ||||
w: ||||
V:2
 x2 | x6 | x6 | D4 x2 | x6 | E4 x2 | x6 | x6 | x4 || x2 | x6 | x6 | x6 | x6 | x6 | x6 | x6 | x4 |] %18
V:3
 [B,,B,]2 | [B,,B,]4 [B,,B,][B,,B,] | [E,B,]2 [E,B,]2 [E,B,]2 | [B,,B,]4 [B,,F,]>[B,,F,] | %4
w: ||||
 [B,,B,]4 [B,,B,]2 | [F,C]4 [F,C][F,B,] | [F,A,]2 [F,A,]2 [F,A,]2 | [F,A,]2 [F,A,]2 F,2 | %8
w: |||* * How|
 [B,,F,]4 || [B,,B,]2 | [E,B,]4 [E,B,][E,B,] | [B,,B,]2 [B,,F,]2 z [B,,B,] | %12
w: |can|I but love|Him? But love|
 [F,A,]2 [F,A,]2 z [F,A,] | [B,,B,]2 !fermata![B,,B,]2 [B,,B,]2 | [E,B,]4 [E,B,][E,B,] | %15
w: Him, but love|Him? There’s no|friend a- bove|
 [B,,B,]2 [B,,F,]2 [B,,B,]2 | [F,A,]2 [F,A,]2 [F,C]2 | [B,,B,]4 |] %18
w: Him, Poor sin-|ner, for thee.||
V:4
 x2 | x6 | x6 | x6 | x6 | x6 | x6 | x4 F,2 | x4 || x2 | x6 | x6 | x6 | x6 | x6 | x6 | x6 | x4 |] %18

